X:521
T: EIN SCHAEFER TRAEGT SORGEN
N: E0508C
O: Europa, Mitteleuropa, Deutschland, Ober - Lahnkreis; Dillkreis
R: Liebes - Lied
M: 3/8
L: 1/16
K: Bb
F2 | B3ABG | F2D2
B2 | c2d2c2 | B4
dd | c3deg | f2d2
ff | g2f2e2 | d4
dd | c3deg | f2d2
ff | g2f2e2 | d4

@@@ Tune index: 4171
